packages/foundations/icons/Health/Wheelchair.svg

<svg width="24" height="24" viewBox="0 0 24 24" fill="none" xmlns="http://www.w3.org/2000/svg">
<path fill-rule="evenodd" clip-rule="evenodd" d="M10.3749 5.19043C11.5485 5.19043 12.4999 4.25237 12.4999 3.09522C12.4999 1.93806 11.5485 1 10.3749 1C9.20132 1 8.24994 1.93806 8.24994 3.09522C8.24994 4.25237 9.20132 5.19043 10.3749 5.19043ZM10.3749 6.23804C10.9198 6.23804 11.3689 6.64246 11.4303 7.16348L11.4374 7.28565L11.437 10.428L15.6873 10.4285C16.2741 10.4285 16.7498 10.8975 16.7498 11.4761C16.7498 12.0133 16.3397 12.4561 15.8112 12.5166L15.6873 12.5237L11.437 12.523L11.4374 14.6189H16.7498C17.1075 14.6189 17.438 14.796 17.6334 15.0847L17.7001 15.198L20.8876 21.4837C21.15 22.0012 20.9373 22.6304 20.4124 22.8892C19.9251 23.1294 19.34 22.9657 19.0488 22.5268L18.987 22.4207L16.6518 17.8181C16.1226 20.7631 13.5137 22.9998 10.3749 22.9998C6.85415 22.9998 4 20.1856 4 16.7141C4 13.5998 6.2971 11.0145 9.31184 10.5155L9.31243 7.28565C9.31243 6.70707 9.78812 6.23804 10.3749 6.23804ZM6.12497 16.7141C6.12497 19.0284 8.02773 20.9046 10.3749 20.9046C12.7221 20.9046 14.6249 19.0284 14.6249 16.7141H10.3749C9.83003 16.7141 9.38095 16.3097 9.31958 15.7887L9.31243 15.6665L9.31241 12.6557C7.47939 13.1209 6.12497 14.7616 6.12497 16.7141Z" fill="#3D474D"/>
</svg>

<svg xmlns="http://www.w3.org/2000/svg" fill="none" viewBox="0 0 24 24" width="100%" height="100%">
  <path fill="#3D474D" fill-rule="evenodd" d="M10.375 5.19c1.174 0 2.125-.938 2.125-2.095C12.5 1.938 11.549 1 10.375 1S8.25 1.938 8.25 3.095c0 1.157.951 2.095 2.125 2.095Zm0 1.048c.545 0 .994.404 1.055.925l.007.123v3.142h4.25c.587 0 1.063.47 1.063 1.048 0 .537-.41.98-.939 1.04l-.124.008-4.25-.001v2.096h5.313c.358 0 .688.177.883.466l.067.113 3.188 6.286a1.04 1.04 0 0 1-.476 1.405 1.071 1.071 0 0 1-1.363-.362l-.062-.106-2.335-4.603C16.122 20.763 13.514 23 10.375 23 6.855 23 4 20.186 4 16.714c0-3.114 2.297-5.7 5.312-6.198v-3.23c0-.579.476-1.048 1.063-1.048Zm-4.25 10.476c0 2.314 1.903 4.19 4.25 4.19s4.25-1.876 4.25-4.19h-4.25c-.545 0-.994-.404-1.055-.925l-.008-.123v-3.01c-1.833.465-3.187 2.106-3.187 4.058Z" clip-rule="evenodd"/>
</svg>
